icons/outline/math-symbols.svg

<!--
tags: [calculator, equal, plus, multiplication, minus, math]
category: Math
version: "1.39"
unicode: "eeb3"
-->
<svg
  xmlns="http://www.w3.org/2000/svg"
  width="24"
  height="24"
  viewBox="0 0 24 24"
  fill="none"
  stroke="currentColor"
  stroke-width="2"
  stroke-linecap="round"
  stroke-linejoin="round"
>
  <path d="M3 12l18 0m-9 -9l0 18m4.5 -16.5l3 3m0 -3l-3 3m-10.5 -3.5l0 4m-2 -2l4 0m10 10l.01 0m-.01 4l.01 0m-14.01 -2l4 0" />
</svg>

<!--
tags: [calculator, equal, plus, multiplication, minus, math]
category: Math
version: "1.39"
unicode: "eeb3"
-->
<svg
  xmlns="http://www.w3.org/2000/svg"
  width="24"
  height="24"
  viewBox="0 0 24 24"
  fill="none"
  stroke="currentColor"
  stroke-width="2"
  stroke-linecap="round"
  stroke-linejoin="round"
>
    <path d="M3 12l18 0M12 3l0 18M16.5 4.5l3 3M19.5 4.5l-3 3M6 4l0 4M4 6l4 0M18 16l.01 0M18 20l.01 0M4 18l4 0" />
</svg>
